assets/img/icons/duotone-icons/Home/Clock.svg

<?xml version="1.0" encoding="UTF-8"?>
<svg width="24px" height="24px" viewBox="0 0 24 24" version="1.1" xmlns="http://www.w3.org/2000/svg" xmlns:xlink="http://www.w3.org/1999/xlink">
    <!-- Generator: Sketch 52.2 (67145) - http://www.bohemiancoding.com/sketch -->
    <title>Stockholm-icons / Home / Clock</title>
    <desc>Created with Sketch.</desc>
    <g id="Stockholm-icons-/-Home-/-Clock" stroke="none" stroke-width="1" fill="none" fill-rule="evenodd">
        <rect id="bound" x="0" y="0" width="24" height="24"></rect>
        <path d="M12,22 C7.02943725,22 3,17.9705627 3,13 C3,8.02943725 7.02943725,4 12,4 C16.9705627,4 21,8.02943725 21,13 C21,17.9705627 16.9705627,22 12,22 Z" id="Mask" fill="#335EEA" opacity="0.3"></path>
        <path d="M11.9630156,7.5 L12.0475062,7.5 C12.3043819,7.5 12.5194647,7.69464724 12.5450248,7.95024814 L13,12.5 L16.2480695,14.3560397 C16.403857,14.4450611 16.5,14.6107328 16.5,14.7901613 L16.5,15 C16.5,15.2109164 16.3290185,15.3818979 16.1181021,15.3818979 C16.0841582,15.3818979 16.0503659,15.3773725 16.0176181,15.3684413 L11.3986612,14.1087258 C11.1672824,14.0456225 11.0132986,13.8271186 11.0316926,13.5879956 L11.4644883,7.96165175 C11.4845267,7.70115317 11.7017474,7.5 11.9630156,7.5 Z" id="Path-107" fill="#335EEA"></path>
    </g>
</svg>

<svg width="24" height="24" viewBox="0 0 24 24" xmlns="http://www.w3.org/2000/svg"><g fill="none" fill-rule="evenodd"><path d="M0 0h24v24H0z"/><path d="M12 22a9 9 0 110-18 9 9 0 010 18z" fill="#335EEA" opacity=".3"/><path d="M11.963 7.5h.085a.5.5 0 01.497.45L13 12.5l3.248 1.856a.5.5 0 01.252.434V15a.382.382 0 01-.482.368l-4.62-1.26a.5.5 0 01-.366-.52l.432-5.626a.5.5 0 01.499-.462z" fill="#335EEA"/></g></svg>
